X:1
T:Mille regretz 3v
T:Mille regretz 3v
T:Tielman Susato
T:Source : Le premier Livre des Chansons à 3 parties---Anvers---T.Susato---1544. Editor : André Vierendeels (05/02/15).
C:Tielman Susato
%%score [ 1 [ 2 3 ] ]
L:1/8
Q:1/4=80
M:2/2
K:C
V:1 treble nm="Superius" snm="S"
V:2 treble nm="Altus" snm="A"
V:3 treble-8 nm="Tenor" snm="T"
V:1
 z8 | z8 | E8 | A4 A4 | G6 FE | D2 C2 D4 | C2 c2 c2 c2 | B2 B2 A4 | z2 A,3 B, CD | EF GE FG AB | %10
w: ||Mil-|le re-|gretz _ _|_ _ _|* de vous hab-|ban- don- ner|et _ _ _|_ _ _ _ d'es- * * *|
 c2 BA B4 | A4 c4 | B4 A4- | A2 GF G4 | A2 A,2 C2 D2 | E3 F G2 A2- | AG FE F4 | E2 A2 A2 A2 | %18
w: lon- * * gier,|et d'es-|lon- gier|_ _ _ _|* vo- stre fa-|ce'a- * * mou-|* * * * reu-|se, vo- stre fa-|
 G2 G2 F4 | E4 z2 E2 | F4 D4 | E4 z2 B2 | c4 A4 | B4 e4 | d6 c2 | B2 A4 G2 | A8 | z4 E4 | G4 G4 | %29
w: ce'a- mou- reu-|se, iay|si grant|dueil, iay|si grant|dueil, et|pai- ne|dou- lo- reu-|se,|qu'on|me ver-|
 D4 z2 d2 | d2 d2 c4- | c4 B4 | A4 z4 | d4 c4- | c4 B4 | A4 z2 A2 | A2 A2 G4 | F4 E2 A2 | %38
w: ra brief|mes iours def-|* fi-|ner,|qu'on me|_ ver-|ra brief|mes iours def-|fi- ner, brief|
 A2 A2 G4 | F4 E2 E2 | G2 E2 G3 F | ED F3 E DC | F3 E E4- | E2 D2 E4- | E8 |] %45
w: mes iours def-|fi- ner, brief|mes iours def- *|||* fi- ner|_|
V:2
 E8 | A4 A4 | G6 FE | D3 C DEFD | E2 CD EFGA | B2 c4 B2 | c2 A2 A2 A2 | G2 FE F4 | E4 c4 | B4 A4- | %10
w: Mil-|le re-|gretz _ _|_ _ _ _ _ _|gretz, mil- * * * * *|le re- *|gretz de vous hab-|ban- * * do-|ner et|d'es- lon-|
 A2 GF G4 | A2 A,3 B,CD | EFGE FGAB | c2 BA B4 | A2 A2 A2 A2 | G3 F ED F2- | F2 E4 D2 | %17
w: * * * gier|et d'es- * * *||* * * lon-|gier vo- stre fa-|ce'a- * * * mou-|* reu- *|
 E2 c2 c2 c2 | B2 G2 A4 | G2 B2 c4 | A4 B4 | z2 E2 F2 D2 | E2 z E F2 D2- | D2 E4 C2 | G3 A B2 c2 | %25
w: se, vo- ste fa-|ce'a- mou- reu-|se, iay si|grant dueil,|iay si grant|dueil, iay si grant|_ dueil et|pai- ne dou- lou-|
 dccB/A/ B4 | A2 A2 c4 | c4 G4 | z2 B2 d4 | d4 A2 D2 | DEFG A2 A,2 | A,B,CD E2 D2 | F3 E D2 C2 | %33
w: reu- * * * * *|se, qu'on me|ver- ra,|qu'on me|ver- ra brief|mes _ _ _ _ iours|def- * * * * fi-|ner, _ _ _|
 B,4 A,2 A2 | A2 E2 G2 D2 | F3 E D2 C2 | D2 F3 E E2- | E2 D2 E2 c2 | c2 c2 B4 | A4 G2 CD | %40
w: _ _ qu'on|me ver- ra brief|mes _ _ iours|def- fi- * *|* * ner, brief|mes iours def-|fi- ner, brief _|
 EFGA B2 B2 | c3 B A2 G2 | F4 E4- | E8- | E8 |] %45
w: _ _ _ _ mes iours|def- * * *|fi- ner.|_||
V:3
 E3 F G2 A2 | DE FG AB c2- | c2 BA G2 A2 | D2 d2 d2 A2 | c6 c2 | B2 A2 G2 G2 | A2 F2 F2 F2 | %7
w: Mil- * * le|re- * * * * * gretz,|_ _ _ _ _|* mil- le re-|gretz de|vous ha- ban- don-|ner, de vous ha-|
 G2 D3 E FG | AB c3 B A2- | A2 G2 A3 G | F4 E2 E2 | F3 G A2 A2 | E4 z4 | F4 E2 G2 | D2 F2 F2 F2 | %15
w: ban- don- * * *|||* ner, et|d'es- * * lon-|gier,|et d'es- lon-|gier vos- tre fa-|
 E4 E2 DE | FG A2 D4 | A4 A2 F2 | G2 E2 FG AB | c2 G2 A4 |"^#" F4 G4 | G2 A2 F2 G2 | z2 A2 F4 | %23
w: ce'a- mou- reu- *|* * * se,|vos- tre fac'|a- mou- reu- * * *|se, iay si|grant dueil,|iay si grand dueil,|iay si|
 G4 E4 | z2 G2 G2 A2 | GG A2 E2 E2 | F3 G A2 A2 | A2 c4 BA | G8 | z2 B2 d3 c | B4 A2 c2 | %31
w: grant dueil|et pai- ne|dou- lou- reu- se, qu'on|me ver- ra, qu'on|me ver- * *|ra,|qu'on me ver-|ra brief mes|
 c2 A2 G4 | d3 c BA A2- | A2 G2 A4 | z A A2 E2 G2 | D4 F3 E | D4 E2 C2 | D4 A4 | A2 F2 GA Bc | %39
w: iours def- fi-|ner, _ _ _ _|_ _ _|qu'on me ver- ra|brief mes iours|def- fi- *|ner, qu'on|me ver- ra _ _ _|
 d2 A2 c4- | c2 c2 B2 G2 | A3 G F2 C2 | D4 A4- | A8- | A8 |] %45
w: _ _ brief|_ mes _ iours|def- * * *|fi- ner.|_||

